X:2338
T:Sooyl ineenyn -Myr hie mee magh dy 'aill 
C:Mrs Callow, Cardle Veg, Maughold 
C:Traditional
O:Isle of Man
Z:Kiaull Vannin 338 
M:2/4
L:1/4 
Q:60 
K:C 
A/|A>A|A B|c B|B A|A A/G/|A A/G/|A c/d/|e>e| 
d e|g e|d B|A>e|e>d|d B/G/|A/G/ E/G/|A>z|| 
e g/a/|e d/e/|a A|A2|e e/d/|e g|a2-|a2| 
e g/a/|e d/e/|a A|A2|e e/f/|e/d/ c/B/|A2-|A2|| 

